!!!COA: des Prez, Josquin
!!!CDT: ~1450-1521/08/27
!!!OTL: Ave Maria...virgo serena
!!!AGN: Motet
!!!SCT: NJE 23.7
!!!SCA: New Josquin Edition 23.7
!!!voices: 8
!!!ONB: attrib. Josquin in Verona 218
**kern	**kern	**kern	**kern	**kern	**kern	**kern	**kern
*part8	*part7	*part6	*part5	*part4	*part3	*part2	*part1
*staff8	*staff7	*staff6	*staff5	*staff4	*staff3	*staff2	*staff1
*Ivox	*Ivox	*Ivox	*Ivox	*Ivox	*Ivox	*Ivox	*Ivox
*I"Bassus2	*I"Bassus1	*I"Tenor2	*I"Tenor1	*I"Altus2	*I"Altus1	*I"Superius2	*I"Superius1
*I'B2	*I'B1	*I'T2	*I'T1	*I'A2	*I'A1	*I'S2	*I'S1
*clefF4	*clefF4	*clefGv2	*clefGv2	*clefGv2	*clefGv2	*clefG2	*clefG2
*k[]	*k[]	*k[]	*k[]	*k[]	*k[]	*k[]	*k[]
*M2/1	*M2/1	*M2/1	*M2/1	*M2/1	*M2/1	*M2/1	*M2/1
*met(C|)	*met(C|)	*met(C|)	*met(C|)	*met(C|)	*met(C|)	*met(C|)	*met(C|)
=	=	=	=	=	=	=	=
!	!	!	!	!	!	!LO:TX:Z=8:t=S2 = S of Josquin's setting (NJE 23.6)	!
0r	0r	0r	1r	0c	1r	1g	0g
.	.	.	1c	.	[1c	[1cc	.
=3	=3	=3	=3	=3	=3	=3	=3
0r	0r	1c	2A	1f	2c]	1cc]	1a
.	.	.	2F	.	2d	.	.
.	.	2c	1c	2.e	2e	1cc	2g
.	.	2A	.	.	2c	.	[2cc
.	.	.	.	4f	.	.	.
=4	=4	=4	=4	=4	=4	=4	=4
0r	0r	1B	1G	1d	[0g	1dd	2cc]
.	.	.	.	.	.	.	2b
.	.	1G	2C	1c	.	1ee	1cc
.	.	.	[2C	.	.	.	.
=5	=5	=5	=5	=5	=5	=5	=5
0r	1c	1r	4C]	2r	1g]	0cc	2r
.	.	.	4D	.	.	.	.
.	.	.	4E	1c	.	.	2g
.	.	.	4C	.	.	.	.
.	2A	1c	1F	.	1f	.	1a
.	2F	.	.	2d	.	.	.
=6	=6	=6	=6	=6	=6	=6	=6
0r	1c	2c	2C	2e	2.e	0r	2g
.	.	2A	2c	2c	.	.	1cc
.	.	.	.	.	4f	.	.
.	1G	1B	2d	[1g	1d	.	.
.	.	.	2d	.	.	.	2b
=7	=7	=7	=7	=7	=7	=7	=7
1c	4C	1G	2.e	1g]	1.c	0r	0cc
.	4D	.	.	.	.	.	.
.	4E	.	.	.	.	.	.
.	4C	.	4d	.	.	.	.
2A	1F	2r	4c	1f	.	.	.
.	.	.	4B	.	.	.	.
2F	.	2c	2A	.	2d	.	.
=8	=8	=8	=8	=8	=8	=8	=8
1c	1C	2c	2G	2.e	2e	0r	0r
.	.	2c	1c	.	2c	.	.
.	.	.	.	4f	.	.	.
1G	1r	1d	.	1d	1g	.	.
.	.	.	2B	.	.	.	.
=9	=9	=9	=9	=9	=9	=9	=9
2C	2r	0e	2c	1c	2r	1.cc	0r
2.C	2G	.	2c	.	2g	.	.
.	2G	.	2c	1r	2g	.	.
4D	.	.	.	.	.	.	.
2E	2G	.	2c	.	2g	2b	.
=10	=10	=10	=10	=10	=10	=10	=10
1F	4A	0r	1d	1r	1f	1a	1r
.	4G	.	.	.	.	.	.
.	4A	.	.	.	.	.	.
.	4B	.	.	.	.	.	.
2C	1c	.	[1e	2r	2e	1g	[1cc
[2C	.	.	.	[2e	4c	.	.
.	.	.	.	.	4d	.	.
=11	=11	=11	=11	=11	=11	=11	=11
4C]	0r	0r	1e]	2e]	4e	2a	2cc]
4D	.	.	.	.	4f	.	.
2E	.	.	.	2e	2g	2g	2b
4F	.	.	1r	2.c	2f	[1cc	2.a
4G	.	.	.	.	.	.	.
2A	.	.	.	.	[2e	.	.
.	.	.	.	4d	.	.	8gL
.	.	.	.	.	.	.	8fJ
=12	=12	=12	=12	=12	=12	=12	=12
0E	1r	0r	0r	0e	2e]	2cc]	2g
.	.	.	.	.	4d	4b	1a
.	.	.	.	.	4c	4a	.
.	1G	.	.	.	1B	1b	.
.	.	.	.	.	.	.	2g
=13	=13	=13	=13	=13	=13	=13	=13
1AA	2E	2r	1.c	0r	1A	0cc	2a
.	2C	1A	.	.	.	.	1a
1r	1F	.	.	.	1r	.	.
.	.	2A	2d	.	.	.	2a
=14	=14	=14	=14	=14	=14	=14	=14
2G	1E	2B	1e	2r	0r	0r	2g
2E	.	2G	.	2g	.	.	1cc
2F	1r	2A	1d	2f	.	.	.
2G	.	2B	.	2d	.	.	2b
=15	=15	=15	=15	=15	=15	=15	=15
1C	1r	2G	0c	1e	1r	0r	0cc
.	.	2.c	.	.	.	.	.
1F	2.c	.	.	1c	2r	.	.
.	.	4B	.	.	.	.	.
.	.	4A	.	.	[2c	.	.
.	4B	4G	.	.	.	.	.
=16	=16	=16	=16	=16	=16	=16	=16
0r	4A	2.F	0r	2r	4c]	0r	2r
.	4G	.	.	.	4B	.	.
.	1F	.	.	2c	4A	.	2cc
.	.	4E	.	.	4G	.	.
.	.	4D	.	2c	2F	.	2cc
.	.	4C	.	.	.	.	.
.	2E	[2c	.	2c	[2G	.	2cc
=17	=17	=17	=17	=17	=17	=17	=17
0r	1D	2c]	1r	1f	2G]	1r	1dd
.	.	2B	.	.	2F	.	.
.	1C	1c	2.c	1e	1G	[1cc	2ee
.	.	.	.	.	.	.	[2cc
.	.	.	4B	.	.	.	.
=18	=18	=18	=18	=18	=18	=18	=18
0r	2r	0r	4A	1r	1r	2cc]	4cc]
.	.	.	4G	.	.	.	4b
.	2.F	.	4F	.	.	2cc	4a
.	.	.	4E	.	.	.	4g
.	.	.	4D	2r	2r	1cc	2f
.	4E	.	4C	.	.	.	.
.	2C	.	[2c	2g	2G	.	2e
=19	=19	=19	=19	=19	=19	=19	=19
1r	2F	0r	2c]	2f	2A	1dd	1d
.	2G	.	2B	2d	2B	.	.
2.c	1C	.	1c	2g	1G	1ee	1c
.	.	.	.	[2c	.	.	.
4B	.	.	.	.	.	.	.
=20	=20	=20	=20	=20	=20	=20	=20
4A	0r	2r	2r	4c]	1c	2.cc	2r
4G	.	.	.	4B	.	.	.
1F	.	2c	2.A	4A	.	.	2cc
.	.	.	.	4G	.	4b	.
.	.	2c	.	4A	2r	2a	2cc
.	.	.	4B	4G	.	.	.
2E	.	2c	2c	[2c	2e	2g	2g
=21	=21	=21	=21	=21	=21	=21	=21
1D	1r	1d	1F	2c]	2f	1f	1dd
.	.	.	.	2B	2d	.	.
1C	2.c	1e	1G	1c	4g	2e	1g
.	.	.	.	.	4f	.	.
.	.	.	.	.	4e	[2cc	.
.	4B	.	.	.	4d	.	.
=22	=22	=22	=22	=22	=22	=22	=22
0r	4A	2r	2r	0r	2.c	4cc]	2r
.	4G	.	.	.	.	4b	.
.	1F	2c	2.A	.	.	1a	2cc
.	.	.	.	.	4B	.	.
.	.	2c	.	.	4A	.	2cc
.	.	.	4B	.	4G	.	.
.	2E	2c	2c	.	[2c	2g	2g
=23	=23	=23	=23	=23	=23	=23	=23
1r	1D	1d	1F	0r	2c]	1f	1dd
.	.	.	.	.	2B	.	.
2.c	1C	1e	1G	.	1c	1e	1g
4B	.	.	.	.	.	.	.
=24	=24	=24	=24	=24	=24	=24	=24
4A	2.c	1r	2r	0r	0r	0r	0r
4G	.	.	.	.	.	.	.
1F	.	.	2.A	.	.	.	.
.	4B	.	.	.	.	.	.
.	2A	1A	.	.	.	.	.
.	.	.	4B	.	.	.	.
2E	2G	.	2c	.	.	.	.
=25	=25	=25	=25	=25	=25	=25	=25
2D	2F	2B	2B	0r	0r	0r	0r
2C	1E	2c	1A	.	.	.	.
1BB	.	1d	.	.	.	.	.
.	2D	.	2G#Xi	.	.	.	.
=26	=26	=26	=26	=26	=26	=26	=26
0AA	1E	0c	2A	2.c	1r	0cc	0r
.	.	.	2.c	.	.	.	.
.	.	.	.	4B	.	.	.
.	1r	.	.	4A	2r	.	.
.	.	.	4B	4G	.	.	.
.	.	.	2e	4F	[2c	.	.
.	.	.	.	4E	.	.	.
=27	=27	=27	=27	=27	=27	=27	=27
1r	0r	0r	2.c	1F	2c]	1a	1.cc
.	.	.	.	.	2A	.	.
.	.	.	4d	.	.	.	.
2r	.	.	2.e	1E	2c	1g	.
2E	.	.	.	.	2G	.	2b
.	.	.	4d	.	.	.	.
=28	=28	=28	=28	=28	=28	=28	=28
2F	2r	0r	4c	0r	4A	1cc	4a
.	.	.	4B	.	4G	.	4g
2F	2A	.	4A	.	1c	.	4f
.	.	.	4G	.	.	.	4e
1D	2A	.	1F	.	.	1dd	1f
.	2D	.	.	.	2B	.	.
=29	=29	=29	=29	=29	=29	=29	=29
1C	2G	0r	1G	2.c	2c	1ee	0e
.	2C	.	.	.	2G	.	.
.	.	.	.	4B	.	.	.
1c	2r	.	2E	2.A	1r	2rb	.
.	2c	.	2e	.	.	[2ee	.
.	.	.	.	4B	.	.	.
=30	=30	=30	=30	=30	=30	=30	=30
2A	2c	0r	2c	4c	1r	4ee]	0r
.	.	.	.	4d	.	4dd	.
2A	2A	.	2c	4e	.	1cc	.
.	.	.	.	4f	.	.	.
1G	1B	.	1d	1g	1r	.	.
.	.	.	.	.	.	2b	.
=31	=31	=31	=31	=31	=31	=31	=31
[0C	[0E	0r	1c	1e	1.g	0cc	0r
.	.	.	1A	[1g	.	.	.
.	.	.	.	.	2f	.	.
=32	=32	=32	=32	=32	=32	=32	=32
0C]	0E]	0r	0c	2g]	2e	1r	1g
.	.	.	.	2f	2d	.	.
.	.	.	.	4e	2c	1cc	1g
.	.	.	.	4d	.	.	.
.	.	.	.	[2g	2B	.	.
=33	=33	=33	=33	=33	=33	=33	=33
0r	0r	0r	1c	2g]	1A	1cc	1a
.	.	.	.	2f	.	.	.
.	.	.	1B	2.g	1G	1dd	1b
.	.	.	.	4f	.	.	.
=34	=34	=34	=34	=34	=34	=34	=34
0r	0r	0r	2r	4e	2.c	1ee	2g
.	.	.	.	4d	.	.	.
.	.	.	1A	4c	.	.	2.cc
.	.	.	.	4B	4d	.	.
.	.	.	.	2A	2e	2ee	.
.	.	.	.	.	.	.	4b
.	.	.	2D	[2a	2d	[2ff	[2dd
=35	=35	=35	=35	=35	=35	=35	=35
0r	0r	0r	1A	4a]	2e	4ff]	4dd]
.	.	.	.	4g	.	4ee	4cc
.	.	.	.	4e	2c	1ee	1cc
.	.	.	.	4f	.	.	.
.	.	.	1G	2g	1d	.	.
.	.	.	.	2g	.	2dd	2b
=36	=36	=36	=36	=36	=36	=36	=36
0C	0G	1r	0r	0g	2.c	0ee	1.cc
.	.	.	.	.	4d	.	.
.	.	[1c	.	.	4e	.	.
.	.	.	.	.	4f	.	.
.	.	.	.	.	[2g	.	4b
.	.	.	.	.	.	.	4a
=37	=37	=37	=37	=37	=37	=37	=37
1C	1G	1c]	0r	0r	4g]	0ra	1g
.	.	.	.	.	4f	.	.
.	.	.	.	.	4e	.	.
.	.	.	.	.	4d	.	.
1F	1A	1c	.	.	1c	.	1r
=38	=38	=38	=38	=38	=38	=38	=38
2D	1B	1d	0r	0r	0r	0r	1dd
2.G	.	.	.	.	.	.	.
.	2B	[1e	.	.	.	.	2b
4E	.	.	.	.	.	.	.
[2A	[2c	.	.	.	.	.	2a
=39	=39	=39	=39	=39	=39	=39	=39
4A]	2c]	2e]	0r	0r	0r	0r	2cc
4G	.	.	.	.	.	.	.
2E	1B	2e	.	.	.	.	2g
1F	.	2c	.	.	.	.	2a
.	2A	2d	.	.	.	.	2a
=40	=40	=40	=40	=40	=40	=40	=40
0E	2B	0e	0r	0r	0r	0r	2g
.	2B	.	.	.	.	.	2g
.	2B	.	.	.	.	.	2g
.	2B	.	.	.	.	.	2g
=41	=41	=41	=41	=41	=41	=41	=41
2r	1.c	2r	0r	0r	0r	1r	2.a
2A	.	2e	.	.	.	.	.
.	.	.	.	.	.	.	8gL
.	.	.	.	.	.	.	8fJ
2A	.	2.e	.	.	.	1ee	2e
2G	2B	.	.	.	.	.	2g
.	.	4d	.	.	.	.	.
=42	=42	=42	=42	=42	=42	=42	=42
2.A	1A	2c	0r	0r	0r	1ee	1e
.	.	2A	.	.	.	.	.
8GL	.	.	.	.	.	.	.
8FJ	.	.	.	.	.	.	.
2E	1G	2B	.	.	.	1ee	1g
2E	.	2c	.	.	.	.	.
=43	=43	=43	=43	=43	=43	=43	=43
1D	1A	1d	2r	2r	0r	1.ff	1f
.	.	.	2d	2a	.	.	.
1r	1r	1A	2d	2.a	.	.	1r
.	.	.	2c	.	.	2ee	.
.	.	.	.	4g	.	.	.
=44	=44	=44	=44	=44	=44	=44	=44
0r	0r	0r	2.d	2f	0r	1dd	0r
.	.	.	.	2d	.	.	.
.	.	.	8c\L	.	.	.	.
.	.	.	8B\J	.	.	.	.
.	.	.	2A	2e	.	1cc	.
.	.	.	2A	2f	.	.	.
=45	=45	=45	=45	=45	=45	=45	=45
2r	0r	2d	1G	1g	0r	1b	0r
2G	.	2B	.	.	.	.	.
2E	.	2G	1r	2g	.	1g	.
2C	.	2c	.	2e	.	.	.
=46	=46	=46	=46	=46	=46	=46	=46
2F	1r	2A	0r	2c	0r	1a	1r
2D	.	2d	.	2f	.	.	.
2G	2r	2d	.	2d	.	1b	2dd
2G	2G	[2G	.	2g	.	.	2b
=47	=47	=47	=47	=47	=47	=47	=47
1C	2E	2G]	0r	2g	2g	1cc	2g
.	2C	2r	.	2c	2e	.	2.cc
1r	2F	1r	.	1r	2c	1a	.
.	.	.	.	.	.	.	4a
.	2D	.	.	.	2f	.	2dd
=48	=48	=48	=48	=48	=48	=48	=48
2r	2G	2d	0r	1r	2d	1b	2dd
2G	2G	2B	.	.	2g	.	1g
2E	2C	2G	.	2g	2g	1cc	.
2C	2E	2c	.	2e	2c	.	2r
=49	=49	=49	=49	=49	=49	=49	=49
2F	1D	2A	0r	2f	1r	1dd	0r
2D	.	2d	.	2f	.	.	.
2G	2r	2d	.	2d	1r	1b	.
2G	2G	[2G	.	2g	.	.	.
=50	=50	=50	=50	=50	=50	=50	=50
2C	2E	4G]	0r	2g	2g	1cc	0r
.	.	4C	.	.	.	.	.
2E	2C	1c	.	2c	2e	.	.
1D	2F	.	.	2r	1f	1dd	.
.	2D	2B	.	2f	.	.	.
=51	=51	=51	=51	=51	=51	=51	=51
1C	2G	2c	0r	2.e	1g	2.ee	0r
.	2G	1G	.	.	.	.	.
.	.	.	.	4f	.	4dd	.
2C	2C	.	.	2g	1r	2ee	.
2F	2c	[2A	.	2c	.	[2ff	.
=52	=52	=52	=52	=52	=52	=52	=52
2D	2c	2A]	0r	2f	2r	4ff]	2r
.	.	.	.	.	.	4ee	.
1G	2d	2.B	.	2g	1d	4dd	2dd
.	.	.	.	.	.	4cc	.
.	[1G	.	.	2d	.	2dd	2b
.	.	4G	.	.	.	.	.
[2C	.	2c	.	2g	2g	[2ee	2g
=53	=53	=53	=53	=53	=53	=53	=53
4C]	2G]	2e	1r	2.g	2g	4ee]	2cc
4D	.	.	.	.	.	4dd	.
4E	2G	2e	.	.	2.G	1cc	2cc
4F	.	.	.	4g	.	.	.
2G	2B-X	2d	1G	2g	.	.	2dd
.	.	.	.	.	4A	.	.
2G	2B-Xi	2d	.	2g	2B	2b	2dd
=54	=54	=54	=54	=54	=54	=54	=54
0C	0G	2c	1.c	0g	1E	0cc	1ee
.	.	2e	.	.	.	.	.
.	.	2.e	.	.	1G	.	2r
.	.	.	2B	.	.	.	2ee
.	.	4d	.	.	.	.	.
=55	=55	=55	=55	=55	=55	=55	=55
0r	0r	2.c	2.A	0r	1.c	1r	1.ee
.	.	8B/L	8GL	.	.	.	.
.	.	8A/J	8FJ	.	.	.	.
.	.	1G	2E	.	.	1g	.
.	.	.	2G	.	2B	.	2dd
=56	=56	=56	=56	=56	=56	=56	=56
0r	0r	2r	2.A	0r	2.A	1.cc	2.cc
.	.	2F	.	.	.	.	.
.	.	.	4B	.	8GL	.	8b/L
.	.	.	.	.	8FJ	.	8a/J
.	.	2D	2c	.	1E	.	2g
.	.	2G	2G	.	.	2b	2b
=57	=57	=57	=57	=57	=57	=57	=57
0r	0r	2F	4c	0r	2r	1cc	2a
.	.	.	4B	.	.	.	.
.	.	2E	4A	.	2G	.	1g
.	.	.	4G	.	.	.	.
.	.	2D	1A	.	1d	1dd	.
.	.	2D	.	.	.	.	2f#Xi
=58	=58	=58	=58	=58	=58	=58	=58
0r	1r	0G	1.G	0r	1.B	1.b	0g
.	1G	.	.	.	.	.	.
.	.	.	2E	.	[2e	4a	.
.	.	.	.	.	.	4g	.
=59	=59	=59	=59	=59	=59	=59	=59
2.C	1c	0r	2.E	0r	4e]	1g	1r
.	.	.	.	.	4f	.	.
.	.	.	.	.	1g	.	.
4D	.	.	4F	.	.	.	.
2E	2B	.	2G	.	.	2g	2r
[2F	[2A	.	2D	.	[2f	[2a	2d
=60	=60	=60	=60	=60	=60	=60	=60
4F]	2A]	0r	1A	1r	4f]	4a]	2f
4G	.	.	.	.	4e	4g	.
2A	2A	.	.	.	2c	1cc	2e
2G	2B	.	2r	2r	1d	.	2g
2G	2B	.	2G	2g	.	2b	2g
=61	=61	=61	=61	=61	=61	=61	=61
1F	0A	0r	2c	1a	2r	0cc	2c
.	.	.	2.F	.	2f	.	2cc
2F	.	.	.	1f	2f	.	2cc
.	.	.	4G	.	.	.	.
2F	.	.	2A	.	2d	.	2a
=62	=62	=62	=62	=62	=62	=62	=62
2E	1r	0r	2G	1g	1.e	0r	2b
2C	.	.	2E	.	.	.	2.ee
1r	2r	.	2A	2e	.	.	.
.	.	.	.	.	.	.	4a
.	2A	.	2F	2f	2a	.	[2cc
=63	=63	=63	=63	=63	=63	=63	=63
2r	2B	0r	1G	1d	2g	0r	4cc]
.	.	.	.	.	.	.	4b
2G	2G	.	.	.	2g	.	4b
.	.	.	.	.	.	.	8a/L
.	.	.	.	.	.	.	8b/J
1A	2c	.	2r	2c	2e	.	2cc
.	[2A	.	2c	2c	2a	.	2cc
=64	=64	=64	=64	=64	=64	=64	=64
1F	4A]	0r	2c	1f	1a	0r	2a
.	4B	.	.	.	.	.	.
.	2c	.	2A	.	.	.	2a
1G	2B	.	2d	2d	1g	.	1b
.	[2G	.	[2e	[2g	.	.	.
=65	=65	=65	=65	=65	=65	=65	=65
2E	2G]	0r	4e]	2g]	1c	1r	1cc
.	.	.	4d	.	.	.	.
2F	2A	.	2.c	2c	.	.	.
1D	1F	.	.	2f	2r	1dd	2dd
.	.	.	4B	.	.	.	.
.	.	.	2B	2f	2d	.	2dd
=66	=66	=66	=66	=66	=66	=66	=66
2C	1G	2G	2c	2e	2g	1ee	1g
2C	.	1c	2c	2e	2e	.	.
2F	1r	.	1A	1f	2.a	1cc	1r
2F	.	2A	.	.	.	.	.
.	.	.	.	.	4g	.	.
=67	=67	=67	=67	=67	=67	=67	=67
2D	0r	4d	2A	2f	4f	1dd	0r
.	.	4c	.	.	4e	.	.
2.G	.	4B	1B	1.g	2d	.	.
.	.	4A	.	.	.	.	.
.	.	[1G	.	.	2.g	1b	.
4F	.	.	.	.	.	.	.
4E	.	.	[2G	.	.	.	.
4D	.	.	.	.	4f	.	.
=68	=68	=68	=68	=68	=68	=68	=68
1C	0r	2G]	2G]	2g	4e	2.cc	0r
.	.	.	.	.	4d	.	.
.	.	2A	1c	2e	1e	.	.
.	.	.	.	.	.	4b	.
2.F	.	4A	.	2f	.	1a	.
.	.	4G	.	.	.	.	.
.	.	4A	2d	2f	2d	.	.
4E	.	4B	.	.	.	.	.
=69	=69	=69	=69	=69	=69	=69	=69
1C	0r	2.c	1G	1e	2e	0g	1r
.	.	.	.	.	1g	.	.
.	.	4B	.	.	.	.	.
2r	.	2G	2G	2r	.	.	2dd
2E	.	2G	[2c	2g	[2e	.	[2ee
=70	=70	=70	=70	=70	=70	=70	=70
2A	0r	1c	2c]	1a	2e]	0r	2ee]
2A	.	.	2A	.	2f	.	2cc
1D	.	1d	2.d	1f	2f	.	2a
.	.	.	.	.	[2d	.	[2dd
.	.	.	4c	.	.	.	.
=71	=71	=71	=71	=71	=71	=71	=71
1G	2r	1G	4B	1g	2d]	0r	4dd]
.	.	.	4A	.	.	.	4cc
.	2G	.	2G	.	2e	.	2.b
1r	2A	1r	2c	2e	2e	.	.
.	.	.	.	.	.	.	4a
.	2F	.	2A	2f	2a	.	2g
=72	=72	=72	=72	=72	=72	=72	=72
2r	1G	0r	2B	1d	1g	1r	2cc
2G	.	.	2.G	.	.	.	2b
[1G	2.C	.	.	1c	1r	1g	2cc
.	.	.	4F	.	.	.	.
.	.	.	4E	.	.	.	2cc
.	4D	.	4D	.	.	.	.
=73	=73	=73	=73	=73	=73	=73	=73
2G]	2E	0r	2C	2r	0r	1cc	2cc
2A	2F	.	1c	2c	.	.	2a
2F	1D	.	.	1f	.	1dd	1dd
2F	.	.	2B	.	.	.	.
=74	=74	=74	=74	=74	=74	=74	=74
1.G	1C	1r	1c	1e	0r	1ee	0g
.	2r	2c	1r	2r	.	2dd	.
2C	2G	2c	.	2g	.	[2ee	.
=75	=75	=75	=75	=75	=75	=75	=75
1C	2G	2c	0r	2g	0r	4ee]	0r
.	.	.	.	.	.	4cc	.
.	2A	2A	.	2e	.	1cc	.
1r	2F	2A	.	2a	.	.	.
.	2F	2B	.	2a	.	[2dd	.
=76	=76	=76	=76	=76	=76	=76	=76
2r	1G	2B	2r	2g	2r	4dd]	0r
.	.	.	.	.	.	4b	.
2G	.	1G	2B	2g	2g	1b	.
2G	2G	.	2B	2g	2g	.	.
2A	2C	2r	2c	2r	2e	2ee	.
=77	=77	=77	=77	=77	=77	=77	=77
2F	1r	1r	1A	1r	2a	4dd	0r
.	.	.	.	.	.	4cc	.
2F	.	.	.	.	2a	1cc	.
2G	2r	2r	1B	2r	2g	.	.
2G	2G	2G	.	2d	2g	2b	.
=78	=78	=78	=78	=78	=78	=78	=78
1C	2.E	1c	2.G	2e	1g	1cc	0r
.	.	.	.	2.c	.	.	.
.	4F	.	4A	.	.	.	.
1r	1D	1d	1F	.	1r	1r	.
.	.	.	.	4B	.	.	.
.	.	.	.	2B	.	.	.
=79	=79	=79	=79	=79	=79	=79	=79
2r	0C	0e	1G	1c	2r	1cc	2r
2c	.	.	.	.	2e	.	2g
2c	.	.	1r	1r	2e	2cc	2g
2c	.	.	.	.	2e	2cc	2a
=80	=80	=80	=80	=80	=80	=80	=80
1.G	0r	0r	0r	0r	1d	1dd	2.b
.	.	.	.	.	.	.	4a
.	.	.	.	.	2r	2b	2g
2F	.	.	.	.	2f	[2cc	[2a
=81	=81	=81	=81	=81	=81	=81	=81
1G	0r	1r	0r	0r	2e	2cc]	4a]
.	.	.	.	.	.	.	4g
.	.	.	.	.	2.d	2b	1g
1D	.	2d	.	.	.	1a	.
.	.	.	.	.	4c	.	.
.	.	2d	.	.	4B	.	2f#Xi
.	.	.	.	.	4A	.	.
=82	=82	=82	=82	=82	=82	=82	=82
2G	0r	2d	2G	2r	2B	0g	1g
2C	.	2.e	2G	2c	2g	.	.
1C	.	.	2G	2c	2g	.	1r
.	.	4d	.	.	.	.	.
.	.	4c	2A	2c	2e	.	.
.	.	4B	.	.	.	.	.
=83	=83	=83	=83	=83	=83	=83	=83
0r	0r	2A	2F	1d	2f	0r	0r
.	.	1d	2.G	.	1d	.	.
.	.	.	.	2B	.	.	.
.	.	.	4F	.	.	.	.
.	.	[2e	4E	[2c	[2a	.	.
.	.	.	4D	.	.	.	.
=84	=84	=84	=84	=84	=84	=84	=84
0r	0r	2e]	1E	4c]	4a]	0r	0r
.	.	.	.	4B	4g	.	.
.	.	2c	.	4A	1g	.	.
.	.	.	.	4G	.	.	.
.	.	1d	1D	1A	.	.	.
.	.	.	.	.	2f#Xi	.	.
=85	=85	=85	=85	=85	=85	=85	=85
0r	2r	2r	0r	1G	1g	1b	2r
.	2E	2G	.	.	.	.	2g
.	2E	2G	.	1r	2r	2b	2g
.	2E	2G	.	.	2e	2b	2g
=86	=86	=86	=86	=86	=86	=86	=86
0r	4AA	2A	0r	0r	2e	1cc	4e
.	4BB	.	.	.	.	.	4d
.	4C	1G	.	.	1g	.	4e
.	4D	.	.	.	.	.	4f
.	2E	.	.	.	.	2b	2g
.	[2F	[2A	.	.	[2f	[2a	[2cc
=87	=87	=87	=87	=87	=87	=87	=87
0r	2F]	2A]	0r	0r	2f]	2a]	2cc]
.	2G	2B	.	.	2e	2g	2b
.	2A	2c	.	.	2e	1f	1a
.	2B	2d	.	.	2d	.	.
=88	=88	=88	=88	=88	=88	=88	=88
1C	2.c	1G	2r	2r	1e	1.e	2g
.	.	.	2c	2e	.	.	2g
.	8BL	.	.	.	.	.	.
.	8AJ	.	.	.	.	.	.
2C	[1G	2r	2c	2e	2r	.	2g
2C	.	2c	2c	2e	2e	[2e	2g
=89	=89	=89	=89	=89	=89	=89	=89
1C	1G]	2c	1G	1.g	2e	2e]	2c
.	.	2c	.	.	2e	4d	1cc
.	.	.	.	.	.	4c	.
1C	1r	2G	2r	.	2e	1g	.
.	.	2c	2G	2g	2e	.	2cc
=90	=90	=90	=90	=90	=90	=90	=90
2F	0r	1c	2A	2a	1c	0r	2cc
2E	.	.	1c	2e	.	.	2g
1D	.	1F	.	1f	1d	.	1dd
.	.	.	2B	.	.	.	.
=91	=91	=91	=91	=91	=91	=91	=91
[0C	0r	[0G	2c	2e	1e	0r	0g
.	.	.	2.e	2.c	.	.	.
.	.	.	.	.	2r	.	.
.	.	.	4d	4d	.	.	.
.	.	.	[2c	4e	[2c	.	.
.	.	.	.	4f	.	.	.
=92	=92	=92	=92	=92	=92	=92	=92
1C]	0r	1G]	2c]	2.g	4c]	0ra	2r
.	.	.	.	.	4d	.	.
.	.	.	4B	.	4e	.	2.c
.	.	.	4A	4f	4f	.	.
2r	.	2r	1G	4e	2g	.	.
.	.	.	.	4d	.	.	4d
[2C	.	2G	.	[2c	[2e	.	4e
.	.	.	.	.	.	.	4f
=93	=93	=93	=93	=93	=93	=93	=93
4C]	0r	2G	1r	2c]	2e]	0r	2.g
4D	.	.	.	.	.	.	.
4E	.	2G	.	4B	4d	.	.
4F	.	.	.	4A	4c	.	4a
[1G	.	2.G	1d	2G	2B	.	4b
.	.	.	.	.	.	.	4cc
.	.	.	.	2g	2G	.	[2dd
.	.	4A	.	.	.	.	.
=94	=94	=94	=94	=94	=94	=94	=94
2G]	0r	2B	2A	2g	2d	0r	4dd]
.	.	.	.	.	.	.	4cc
2D	.	2G	2e	2e	2g	.	1cc
2F	.	2A	2d	2a	2f	.	.
2G	.	2B	2d	2g	2d	.	2b
=95	=95	=95	=95	=95	=95	=95	=95
*M3/1	*M3/1	*M3/1	*M3/1	*M3/1	*M3/1	*M3/1	*M3/1
*met(3)	*met(3)	*met(3)	*met(3)	*met(3)	*met(3)	*met(3)	*met(3)
0.C	1G	1G	0.c	1g	1e	1g	0cc
.	1E	1G	.	1g	1e	1g	.
.	1C	1c	.	1e	1e	1g	1cc
=96	=96	=96	=96	=96	=96	=96	=96
0.r	0F	1A	0.r	1c	1f	0a	1cc
.	.	1A	.	0f	1d	.	1cc
.	1D	1d	.	.	1r	1a	1dd
=97	=97	=97	=97	=97	=97	=97	=97
0.r	0G	1d	0.r	1d	1B	0b	1dd
.	.	1d	.	0g	1B	.	1dd
.	1G	[1G	.	.	1B	1b	1dd
=98	=98	=98	=98	=98	=98	=98	=98
0.r	[0.C	1G]	0.r	1g	0c	0g	0.ee
.	.	0c	.	0c	.	.	.
.	.	.	.	.	1r	1r	.
=99	=99	=99	=99	=99	=99	=99	=99
1G	0.C]	0.r	1r	1e	1r	1g	1r
1E	.	.	1G	1e	1g	1g	1r
1C	.	.	1c	1e	1e	1g	1cc
=100	=100	=100	=100	=100	=100	=100	=100
0F	0.r	0.r	1A	1f	1c	0a	1cc
.	.	.	1A	1c	0f	.	1cc
1D	.	.	1d	1r	.	1a	1dd
=101	=101	=101	=101	=101	=101	=101	=101
0G	0.r	0.r	1d	0B	1d	0b	1dd
.	.	.	1d	.	0g	.	1dd
1G	.	.	[1G	1B	.	1b	1dd
=102	=102	=102	=102	=102	=102	=102	=102
0C	0.r	0.r	1G]	0c	1g	0g	0.ee
.	.	.	1G	.	0c	.	.
[1C	.	.	[1c	1r	.	1g	.
=103	=103	=103	=103	=103	=103	=103	=103
1C]	0.r	0.r	1c]	1r	0c	0cc	0.r
0F	.	.	1c	0c	.	.	.
.	.	.	[1A	.	[1f	1cc	.
=104	=104	=104	=104	=104	=104	=104	=104
1F	0.r	0.r	1A]	0f	1f]	0a	0.r
0D	.	.	1A	.	1f	.	.
.	.	.	[1d	1f	[1d	1a	.
=105	=105	=105	=105	=105	=105	=105	=105
1D	0.r	0.r	2d]	0d	1d]	1.dd	0.r
.	.	.	2c	.	.	.	.
1.G	.	.	2B	.	1d	.	.
.	.	.	2A	.	.	2cc	.
.	.	.	[1G	1d	[1g	2b	.
2F	.	.	.	.	.	2a	.
=106	=106	=106	=106	=106	=106	=106	=106
2E	0.r	0.r	1G]	1.g	2g]	0g	0.r
2D	.	.	.	.	2f	.	.
0C	.	.	1G	.	2e	.	.
.	.	.	.	2f	2d	.	.
.	.	.	[1c	2e	2c	1g	.
.	.	.	.	2d	2B	.	.
=107	=107	=107	=107	=107	=107	=107	=107
1C	0.r	0.r	2c]	0c	2A	0cc	0.r
.	.	.	2B	.	2G	.	.
1.F	.	.	2A	.	1.F	.	.
.	.	.	2G	.	.	.	.
.	.	.	[1F	1f	.	1cc	.
2E	.	.	.	.	2G	.	.
=108	=108	=108	=108	=108	=108	=108	=108
1D	0.r	0.r	1F]	1f	2A	1dd	0.r
.	.	.	.	.	2B	.	.
1.C	.	.	1G	1.e	[0c	1.ee	.
.	.	.	1c	.	.	.	.
2D	.	.	.	2f	.	4dd	.
.	.	.	.	.	.	4cc	.
=109	=109	=109	=109	=109	=109	=109	=109
1E	0.r	0.r	1c	1g	1c]	0cc	0.r
1F	.	.	1d	1f	1A	.	.
1G	.	.	1d	1d	1B	1b	.
=110	=110	=110	=110	=110	=110	=110	=110
*M2/1	*M2/1	*M2/1	*M2/1	*M2/1	*M2/1	*M2/1	*M2/1
*met(C|)	*met(C|)	*met(C|)	*met(C|)	*met(C|)	*met(C|)	*met(C|)	*met(C|)
0C	1r	1G	0c	1e	0E	0cc	1g
.	1C	[1c	.	1r	.	.	1g
=111	=111	=111	=111	=111	=111	=111	=111
0r	0F	1c]	1r	1c	0r	0r	0a
.	.	1A	1A	[1f	.	.	.
=112	=112	=112	=112	=112	=112	=112	=112
0r	1D	1.d	1A	1f]	0r	0dd	1a
.	[1G	.	[1G	[1d	.	.	[1b
.	.	2c	.	.	.	.	.
=113	=113	=113	=113	=113	=113	=113	=113
0r	2G]	2B	1G]	2d]	0r	1dd	2b]
.	4F	4A	.	2e	.	.	2cc
.	4E	4G	.	.	.	.	.
.	2D	2A	1F	1f	.	1dd	2dd
.	2D	2B	.	.	.	.	2dd
=114	=114	=114	=114	=114	=114	=114	=114
0r	0C	2.c	1G	1e	1G	1.ee	1g
.	.	4d	.	.	.	.	.
.	.	1e	1r	2e	2.c	.	2r
.	.	.	.	[2g	.	4dd	[2g
.	.	.	.	.	4d	4cc	.
=115	=115	=115	=115	=115	=115	=115	=115
0r	1r	0r	2r	2g]	4e	1b	4g]
.	.	.	.	.	4f	.	4a
.	.	.	2G	4f	1g	.	4b
.	.	.	.	4e	.	.	4cc
.	2r	.	4G	1d	.	2b	1dd
.	.	.	4A	.	.	.	.
.	[2G	.	4B	.	4f	[2dd	.
.	.	.	4c	.	4e	.	.
=116	=116	=116	=116	=116	=116	=116	=116
1r	4G]	0r	2d	2r	2d	2dd]	0dd
.	4A	.	.	.	.	.	.
.	4B	.	2.d	2.d	1g	4cc	.
.	4c	.	.	.	.	4b	.
1D	2d	.	.	.	.	1a	.
.	.	.	4c	4e	.	.	.
.	2d	.	2A	2f	2f#Xi	.	.
=117	=117	=117	=117	=117	=117	=117	=117
2G	1G	2r	1B	2e	0g	0g	1r
2G	.	2G	.	2d	.	.	.
1C	1r	2c	1G	1e	.	.	1g
.	.	2c	.	.	.	.	.
=118	=118	=118	=118	=118	=118	=118	=118
0D	1A	4A	2r	0d	0r	0r	1.dd
.	.	4G	.	.	.	.	.
.	.	4F	1A	.	.	.	.
.	.	4E	.	.	.	.	.
.	1d	2D	.	.	.	.	.
.	.	2d	[2B	.	.	.	2dd
=119	=119	=119	=119	=119	=119	=119	=119
0r	1G	1B	4B]	1r	0r	0r	1dd
.	.	.	4A	.	.	.	.
.	.	.	1G	.	.	.	.
.	1A	1c	.	1c	.	.	1cc
.	.	.	2F#Xi	.	.	.	.
=120	=120	=120	=120	=120	=120	=120	=120
0r	2G	0d	1G	1.g	0r	0dd	2.b
.	2.G	.	.	.	.	.	.
.	.	.	.	.	.	.	4a
.	.	.	2r	.	.	.	4b
.	4A	.	.	.	.	.	4cc
.	4B	.	[2G	2g	.	.	[2dd
.	4c	.	.	.	.	.	.
=121	=121	=121	=121	=121	=121	=121	=121
0r	2d	2r	4G]	1g	0r	1dd	2dd]
.	.	.	4A	.	.	.	.
.	2G	2d	4B	.	.	.	4cc
.	.	.	4c	.	.	.	4b
.	1D	2d	2d	1f	.	1dd	1a
.	.	[2d	2d	.	.	.	.
=122	=122	=122	=122	=122	=122	=122	=122
0C	0r	2d]	0G	1e	0r	1.ee	[0g
.	.	4c	.	.	.	.	.
.	.	4B	.	.	.	.	.
.	.	1c	.	1e	.	.	.
.	.	.	.	.	.	4dd	.
.	.	.	.	.	.	4cc	.
=123	=123	=123	=123	=123	=123	=123	=123
1.G	2.G	1d	0r	[0d	0r	1b	0g]
.	4A	.	.	.	.	.	.
.	4B	1r	.	.	.	2b	.
.	4c	.	.	.	.	.	.
2G	[2B	.	.	.	.	[2dd	.
=124	=124	=124	=124	=124	=124	=124	=124
1G	2B]	1B	1r	1d]	0r	2dd]	0r
.	4A	.	.	.	.	4cc	.
.	4G	.	.	.	.	4b	.
1F	2.A	2c	2r	1r	.	1a	.
.	.	2d	2F	.	.	.	.
.	4B	.	.	.	.	.	.
=125	=125	=125	=125	=125	=125	=125	=125
1E	2c	1e	1G	2r	0r	0g	0r
.	2d	.	.	2g	.	.	.
1C	1c	1e	1G	2g	.	.	.
.	.	.	.	2e	.	.	.
=126	=126	=126	=126	=126	=126	=126	=126
1D	2.F	2.A	1A	1f	0r	0r	0r
.	4G	4B	.	.	.	.	.
1r	2A	2c	2A	1r	.	.	.
.	[2B-Xi	[2d	2G	.	.	.	.
=127	=127	=127	=127	=127	=127	=127	=127
1r	4B-]	4d]	1F	1d	0r	0r	0r
.	4A	4c	.	.	.	.	.
.	1A	4B	.	.	.	.	.
.	.	4A	.	.	.	.	.
2r	.	1B	1E	2.e	.	.	.
2E	2G	.	.	.	.	.	.
.	.	.	.	4d	.	.	.
=128	=128	=128	=128	=128	=128	=128	=128
2F	1A	2A	2.A	2c	0r	1r	0r
2F	.	2D	.	2d	.	.	.
.	.	.	4B	.	.	.	.
2.E	1r	2.G	2c	1e	.	1g	.
.	.	.	[2B	.	.	.	.
4D	.	4F	.	.	.	.	.
=129	=129	=129	=129	=129	=129	=129	=129
2C	0r	2E	4B]	1r	0r	1a	1a
.	.	.	4A	.	.	.	.
2D	.	2F	1A	.	.	.	.
1BB	.	1D	.	1d	.	1b	1dd
.	.	.	2G#Xi	.	.	.	.
=130	=130	=130	=130	=130	=130	=130	=130
1AA	1r	1E	1A	1.a	1A	1.cc	2cc
.	.	.	.	.	.	.	4a
.	.	.	.	.	.	.	4b
1r	1E	1r	2r	.	2e	.	4cc
.	.	.	.	.	.	.	4dd
.	.	.	2G	4g	2e	2b	[2ee
.	.	.	.	4f	.	.	.
=131	=131	=131	=131	=131	=131	=131	=131
0r	2A	1A	2c	2.e	4c	1cc	4ee]
.	.	.	.	.	4d	.	4dd
.	2A	.	2A	.	4e	.	1cc
.	.	.	.	4f	4f	.	.
.	1G	2d	2B	2d	2g	1dd	.
.	.	2B	2G	2d	2g	.	2b
=132	=132	=132	=132	=132	=132	=132	=132
2r	2r	2e	2c	1c	1e	0ee	0cc
2A	2c	4A	2c	.	.	.	.
.	.	4B	.	.	.	.	.
2.A	2.c	4c	1A	1r	2r	.	.
.	.	4d	.	.	.	.	.
.	.	2e	.	.	2c	.	.
4G	4B	.	.	.	.	.	.
=133	=133	=133	=133	=133	=133	=133	=133
2F	2A	2d	0r	1r	2d	0r	2r
2E	1G	1c	.	.	2e	.	2cc
2D	.	.	.	1d	2f	.	2dd
2D	2F	2B	.	.	2f	.	2dd
=134	=134	=134	=134	=134	=134	=134	=134
0C	0G	0c	2r	1g	[0e	1r	0g
.	.	.	2G	.	.	.	.
.	.	.	[1c	4e	.	1ee	.
.	.	.	.	4d	.	.	.
.	.	.	.	4e	.	.	.
.	.	.	.	4f	.	.	.
=135	=135	=135	=135	=135	=135	=135	=135
0r	1r	2r	1c]	2g	1e]	1ee	2r
.	.	2c	.	1a	.	.	2a
.	2r	2d	1B	.	1r	1dd	2b
.	2G	2d	.	2g	.	.	2b
=136	=136	=136	=136	=136	=136	=136	=136
2r	2c	2e	0A	1.a	2r	1.cc	2cc
2F	2c	2A	.	.	2c	.	2a
2F	2A	2F	.	.	2f	.	2a
2D	2d	2F	.	2a	2f	[2dd	2a
=137	=137	=137	=137	=137	=137	=137	=137
2G	2d	2G	1r	1.g	2d	1dd]	2b
2G	2G	2G	.	.	2g	.	2b
2C	1c	2E	2r	.	2g	[1cc	1cc
[2F	.	2A	2c	[2a	2c	.	.
=138	=138	=138	=138	=138	=138	=138	=138
2F]	2A	2A	2c	2a]	1f	2cc]	1r
2D	1d	2B	2d	2f	.	1.b	.
1G	.	2B	2d	1g	2d	.	1dd
.	2G	2B	2d	.	[2g	.	.
=139	=139	=139	=139	=139	=139	=139	=139
0C	0r	1G	0c	0e	2g]	1cc	1.ee
.	.	.	.	.	2.c	.	.
.	.	2r	.	.	.	1r	.
.	.	.	.	.	4d	.	.
.	.	[2c	.	.	4e	.	2ee
.	.	.	.	.	4f	.	.
=140	=140	=140	=140	=140	=140	=140	=140
0r	1r	2c]	2r	0r	2g	0r	1ee
.	.	2c	2c	.	1a	.	.
.	2r	1B	2d	.	.	.	1dd
.	2G	.	2d	.	2g	.	.
=141	=141	=141	=141	=141	=141	=141	=141
2r	2c	0A	2e	2r	2a	0r	1.cc
2F	2c	.	2A	2c	2a	.	.
2F	2A	.	2F	2f	2a	.	.
2D	2d	.	2F	2f	2a	.	[2dd
=142	=142	=142	=142	=142	=142	=142	=142
2G	2d	1r	2G	2d	1g	0r	1dd]
2G	2G	.	2G	2g	.	.	.
2C	1c	2r	2E	2g	2g	.	[1cc
[2F	.	2c	2A	2c	[2a	.	.
=143	=143	=143	=143	=143	=143	=143	=143
2F]	2A	2c	2A	1f	2a]	0r	2cc]
2D	1d	2d	2B	.	2f	.	1.b
1G	.	2d	2B	2d	2g	.	.
.	2G	2d	2B	[2g	2g	.	.
=144	=144	=144	=144	=144	=144	=144	=144
1C	1G	1c	2G	2g]	1e	0cc	1cc
.	.	.	1c	2c	.	.	.
1F	1A	1A	.	2r	1c	.	2r
.	.	.	2c	[2f	.	.	2cc
=145	=145	=145	=145	=145	=145	=145	=145
1F	1D	1A	2.A	2f]	2f	1dd	1f
.	.	.	.	2f	2d	.	.
.	.	.	4B	.	.	.	.
1C	1r	1G	4c	1e	2g	1ee	1cc
.	.	.	4d	.	.	.	.
.	.	.	2e	.	2c	.	.
=146	=146	=146	=146	=146	=146	=146	=146
0D	0F	2.F	2.d	2r	2.f	0ff	1a
.	.	.	.	2.d	.	.	.
.	.	4G	8cL	.	4e	.	.
.	.	.	8BJ	.	.	.	.
.	.	[1A	2.A	.	4d	.	1dd
.	.	.	.	4e	4c	.	.
.	.	.	.	4f	2d	.	.
.	.	.	4B	4d	.	.	.
=147	=147	=147	=147	=147	=147	=147	=147
0AA	0C	2A]	0c	0a	0e	0ee	0cc
.	.	4G	.	.	.	.	.
.	.	4F	.	.	.	.	.
.	.	1E	.	.	.	.	.
=148	=148	=148	=148	=148	=148	=148	=148
1r	1r	1r	1r	1r	1r	1r	1r
1C	1G	1E	1c	1g	1e	1ee	2r
.	.	.	.	.	.	.	[2cc
=149	=149	=149	=149	=149	=149	=149	=149
1C	2E	0G	1c	0g	2e	1ee	4cc]
.	.	.	.	.	.	.	4b
.	2C	.	.	.	2.g	.	4g
.	.	.	.	.	.	.	4a
1G	1r	.	1B	.	.	1dd	1b
.	.	.	.	.	4f	.	.
.	.	.	.	.	2d	.	.
=150	=150	=150	=150	=150	=150	=150	=150
1A	0AA	1.c	2.A	1.e	2.a	0cc	2.cc
.	.	.	4B	.	8gL	.	4dd
.	.	.	.	.	8fJ	.	.
2.E	.	.	2.c	.	2e	.	1ee
.	.	4B	.	2f	2c	.	.
4F	.	4A	4d	.	.	.	.
=151	=151	=151	=151	=151	=151	=151	=151
[0G;	1.E	1.G	0e	[0g;	2r	[0b;	2r
.	.	.	.	.	2g	.	1ee
.	.	.	.	.	2g	.	.
.	2F	2A	.	.	2g	.	4dd
.	.	.	.	.	.	.	4cc
=152	=152	=152	=152	=152	=152	=152	=152
0G_	[0G;	[0B;	2r	0g_	2d	0b_	1.b
.	.	.	1d	.	1g	.	.
.	.	.	2c	.	4f	.	2cc
.	.	.	.	.	4e	.	.
=153	=153	=153	=153	=153	=153	=153	=153
0G_	0G_	0B_	1.B	0g_	[0d;	0b_	[0dd;
.	.	.	2c	.	.	.	.
=154	=154	=154	=154	=154	=154	=154	=154
0G]	0G]	0B]	0d;	0g]	0d]	0b]	0dd]
=155	=155	=155	=155	=155	=155	=155	=155
0C	1r	0G	1r	1.g	1r	0cc	0ee
.	1E	.	1c	.	1g	.	.
.	.	.	.	2e	.	.	.
=156	=156	=156	=156	=156	=156	=156	=156
[0Cl	0E	0G	0c	0e	0g	0cc	0ee
=157	=157	=157	=157	=157	=157	=157	=157
0C]	0El	0Gl	0cl	0el	0gl	0ccl	0eel
==	==	==	==	==	==	==	==
*-	*-	*-	*-	*-	*-	*-	*-
!!!RDF**kern: l=long note in original notation
!!!system-decoration: [(s1,s2,s3,s4)][(s5,s6,s7,s8)]
!!!RDF**kern: i = editorial accidental
!!!ENC: Megan K. Eagen 2013/01/01
!!!END: 2013/01/01/
!!!EED: Jesse Rodin
!!!EEV: 2020/10/23/
!!attribution-level@Jos: 4a (the rest [double question mark])
!!!ONB: Translated from MusicXML and edited on 2021/03/22 by Craig Sapp
!!muse2ps: C^@{COA}?? (attrib. in Verona 218)\n@{SCT}^i2I150v80,80,80,80,80,80,80,120c125s^[(....)][(....)]^
